komodo/Komodo-Biru/emblems/scalable/emblem-ubuntuone-synchronized.svg

<?xml version="1.0" encoding="UTF-8" standalone="no"?>
<!-- Created with Inkscape (http://www.inkscape.org/) -->

<svg
   xmlns:dc="http://purl.org/dc/elements/1.1/"
   xmlns:cc="http://creativecommons.org/ns#"
   xmlns:rdf="http://www.w3.org/1999/02/22-rdf-syntax-ns#"
   xmlns:svg="http://www.w3.org/2000/svg"
   xmlns="http://www.w3.org/2000/svg"
   xmlns:xlink="http://www.w3.org/1999/xlink"
   xmlns:sodipodi="http://sodipodi.sourceforge.net/DTD/sodipodi-0.dtd"
   xmlns:inkscape="http://www.inkscape.org/namespaces/inkscape"
   width="96"
   height="96"
   id="svg2982"
   version="1.1"
   inkscape:version="0.48.1 r9760"
   sodipodi:docname="emblem-ubuntuone-synchronized.svg">
  <defs
     id="defs2984">
    <filter
       color-interpolation-filters="sRGB"
       inkscape:collect="always"
       id="filter6279-2">
      <feGaussianBlur
         inkscape:collect="always"
         stdDeviation="0.8"
         id="feGaussianBlur6281-1" />
    </filter>
    <linearGradient
       inkscape:collect="always"
       xlink:href="#ButtonColor-6"
       id="linearGradient9181"
       gradientUnits="userSpaceOnUse"
       gradientTransform="translate(0,-7.8515622e-6)"
       x1="48"
       y1="1052.3622"
       x2="48"
       y2="902.36218" />
    <linearGradient
       x1="10.31979"
       y1="21"
       x2="10.31979"
       y2="0.99929649"
       id="ButtonColor-6"
       gradientUnits="userSpaceOnUse">
      <stop
         id="stop3189-4"
         style="stop-color:#c8c8c8;stop-opacity:1"
         offset="0" />
      <stop
         id="stop3191-0-7"
         style="stop-color:#e6e6e6;stop-opacity:1"
         offset="1" />
    </linearGradient>
    <linearGradient
       x1="8.7404661"
       y1="4.5355735"
       x2="8.7404661"
       y2="20.492353"
       id="linearGradient2938"
       xlink:href="#linearGradient3904"
       gradientUnits="userSpaceOnUse"
       gradientTransform="matrix(4.5355736,0,0,3.5276684,4,-70)" />
    <linearGradient
       x1="11"
       y1="3.9374998"
       x2="11"
       y2="18.083122"
       id="linearGradient3904"
       gradientUnits="userSpaceOnUse">
      <stop
         id="stop3906"
         style="stop-color:#323232;stop-opacity:1"
         offset="0" />
      <stop
         id="stop3908"
         style="stop-color:#787878;stop-opacity:1"
         offset="1" />
    </linearGradient>
    <clipPath
       id="clipPath3732">
      <path
         d="m -100,-74 0,96 96,0 0,-96 -96,0 z M -27.65625,-54 -16,-42.3125 -60.09375,2 -60.125,2 -88,-26 -76.34375,-37.71875 -60.125,-21.40625 -27.65625,-54 z"
         inkscape:connector-curvature="0"
         id="path3734"
         style="opacity:0.3;color:#000000;fill:#ff0000;stroke:none;stroke-width:1;marker:none;visibility:visible;display:inline;overflow:visible;enable-background:accumulate" />
    </clipPath>
    <filter
       color-interpolation-filters="sRGB"
       id="filter3736">
      <feGaussianBlur
         id="feGaussianBlur3738"
         stdDeviation="0.96" />
    </filter>
  </defs>
  <sodipodi:namedview
     id="base"
     pagecolor="#ffffff"
     bordercolor="#666666"
     borderopacity="1.0"
     inkscape:pageopacity="0.0"
     inkscape:pageshadow="2"
     inkscape:zoom="3.959798"
     inkscape:cx="36.39115"
     inkscape:cy="42.877139"
     inkscape:document-units="px"
     inkscape:current-layer="layer1"
     showgrid="false"
     inkscape:window-width="1280"
     inkscape:window-height="725"
     inkscape:window-x="0"
     inkscape:window-y="25"
     inkscape:window-maximized="1" />
  <metadata
     id="metadata2987">
    <rdf:RDF>
      <cc:Work
         rdf:about="">
        <dc:format>image/svg+xml</dc:format>
        <dc:type
           rdf:resource="http://purl.org/dc/dcmitype/StillImage" />
        <dc:title></dc:title>
      </cc:Work>
    </rdf:RDF>
  </metadata>
  <g
     inkscape:label="Layer 1"
     inkscape:groupmode="layer"
     id="layer1"
     transform="translate(0,-956.36218)">
    <g
       id="g6877">
      <rect
         transform="translate(0,-7.8515622e-6)"
         y="964.36218"
         x="8"
         height="80"
         width="80"
         id="rect9283"
         style="fill:#000000;fill-opacity:1;stroke:none;filter:url(#filter6279-2)"
         rx="5"
         ry="5" />
      <rect
         ry="5"
         rx="5"
         style="fill:url(#linearGradient9181);fill-opacity:1;stroke:none"
         id="rect9285"
         width="80"
         height="80"
         x="8"
         y="964.36218" />
      <g
         id="g3045"
         style="display:inline"
         transform="matrix(0.74434299,0,0,0.74434299,12.271536,968.58846)">
        <g
           transform="translate(0,74)"
           id="layer1-9">
          <path
             d="M 72.350972,-54 39.890477,-21.42148 23.649037,-37.710709 12,-26.011244 39.868078,2 39.890478,1.9776 39.912878,2 84,-42.300543 72.350972,-54 z"
             inkscape:connector-curvature="0"
             id="Symbol"
             style="fill:url(#linearGradient2938);fill-opacity:1;stroke:none;display:inline" />
          <path
             d="M -27.649028,-54 -60.109523,-21.42148 -76.350963,-37.710709 -88,-26.011244 -60.131922,2 -60.109522,1.9776 -60.087122,2 -16,-42.300543 -27.649028,-54 z"
             inkscape:connector-curvature="0"
             transform="translate(100,0)"
             clip-path="url(#clipPath3732)"
             id="path2943"
             style="opacity:0.2;fill:none;stroke:#ffffff;stroke-width:4;stroke-miterlimit:4;stroke-dasharray:none;display:inline;filter:url(#filter3736)" />
        </g>
      </g>
    </g>
  </g>
</svg>

<?xml version="1.0" encoding="UTF-8" standalone="no"?>
<!-- Created with Inkscape (http://www.inkscape.org/) -->
<svg id="svg2982" xmlns:rdf="http://www.w3.org/1999/02/22-rdf-syntax-ns#" xmlns="http://www.w3.org/2000/svg" height="96" width="96" version="1.1" xmlns:cc="http://creativecommons.org/ns#" xmlns:xlink="http://www.w3.org/1999/xlink" xmlns:dc="http://purl.org/dc/elements/1.1/">
 <defs id="defs2984">
  <filter id="filter6279-2" color-interpolation-filters="sRGB">
   <feGaussianBlur id="feGaussianBlur6281-1" stdDeviation="0.8"/>
  </filter>
  <linearGradient id="linearGradient9181" y2="902.36" gradientUnits="userSpaceOnUse" x2="48" gradientTransform="translate(0 -.0000078516)" y1="1052.4" x1="48">
   <stop id="stop3189-4" style="stop-color:#c8c8c8" offset="0"/>
   <stop id="stop3191-0-7" style="stop-color:#e6e6e6" offset="1"/>
  </linearGradient>
  <linearGradient id="linearGradient2938" y2="20.492" gradientUnits="userSpaceOnUse" x2="8.7405" gradientTransform="matrix(4.5356 0 0 3.5277 4 -70)" y1="4.5356" x1="8.7405">
   <stop id="stop3906" style="stop-color:#323232" offset="0"/>
   <stop id="stop3908" style="stop-color:#787878" offset="1"/>
  </linearGradient>
  <clipPath id="clipPath3732">
   <path id="path3734" style="opacity:.3;color:#000000;fill:#f00" d="m-100-74v96h96v-96h-96zm72.344 20 11.656 11.688-44.094 44.312h-0.031l-27.875-28 11.656-11.719 16.219 16.313 32.469-32.594z"/>
  </clipPath>
  <filter id="filter3736" color-interpolation-filters="sRGB">
   <feGaussianBlur id="feGaussianBlur3738" stdDeviation="0.96"/>
  </filter>
 </defs>
 <metadata id="metadata2987">
  <rdf:RDF>
   <cc:Work rdf:about="">
    <dc:format>image/svg+xml</dc:format>
    <dc:type rdf:resource="http://purl.org/dc/dcmitype/StillImage"/>
    <dc:title/>
   </cc:Work>
  </rdf:RDF>
 </metadata>
 <g id="layer1" transform="translate(0 -956.36)">
  <g id="g6877">
   <rect id="rect9283" ry="5" style="filter:url(#filter6279-2)" rx="5" transform="translate(0 -.0000078516)" height="80" width="80" y="964.36" x="8"/>
   <rect id="rect9285" style="fill:url(#linearGradient9181)" rx="5" ry="5" height="80" width="80" y="964.36" x="8"/>
   <g id="g3045" transform="matrix(.74434 0 0 .74434 12.272 968.59)">
    <g id="layer1-9" transform="translate(0,74)">
     <path id="Symbol" style="fill:url(#linearGradient2938)" d="m72.351-54-32.461 32.579-16.241-16.29-11.649 11.7 27.868 28.011 0.022-0.0224 0.023 0.0224 44.087-44.301-11.649-11.699z"/>
     <path id="path2943" style="opacity:.2;filter:url(#filter3736);stroke:#fff;stroke-width:4;fill:none" d="m-27.649-54-32.461 32.579-16.241-16.29-11.649 11.7 27.868 28.011 0.022-0.0224 0.023 0.0224 44.087-44.301-11.649-11.699z" clip-path="url(#clipPath3732)" transform="translate(100)"/>
    </g>
   </g>
  </g>
 </g>
</svg>
